icons-rebrand/svg/studio-mode-regular.svg

<svg width="32" height="32" viewBox="0 0 32 32" fill="none" xmlns="http://www.w3.org/2000/svg">
<path d="M7.69202 3.25L7.6904 3.25C6.51358 3.25255 5.38551 3.72106 4.55329 4.55329C3.72108 5.3855 3.25254 6.51343 3.25 7.69028V10C3.25 10.4142 3.58579 10.75 4 10.75C4.41421 10.75 4.75 10.4142 4.75 10V7.69276C4.75188 6.91282 5.06248 6.16542 5.61395 5.61395C6.1654 5.0625 6.91291 4.75189 7.69288 4.75H10C10.4142 4.75 10.75 4.41422 10.75 4C10.75 3.58579 10.4142 3.25 10 3.25H7.69202Z" fill="#0F0F0F"/>
<path d="M22 3.25C21.5858 3.25 21.25 3.58579 21.25 4C21.25 4.41421 21.5858 4.75 22 4.75H24.3062C25.0864 4.75165 25.834 5.06214 26.3856 5.61365C26.9373 6.16518 27.2481 6.9127 27.25 7.69269V10C27.25 10.4142 27.5858 10.75 28 10.75C28.4142 10.75 28.75 10.4142 28.75 10L28.75 7.69189L28.75 7.69027C28.7475 6.51315 28.2786 5.38504 27.4462 4.55285C26.6137 3.72061 25.4855 3.25223 24.3084 3.25H22Z" fill="#0F0F0F"/>
<path d="M4 21.25C4.41421 21.25 4.75 21.5858 4.75 22V24.3071C4.75188 25.0871 5.06248 25.8345 5.61395 26.3859C6.16543 26.9374 6.91293 27.2481 7.69281 27.25H10C10.4142 27.25 10.75 27.5858 10.75 28C10.75 28.4142 10.4142 28.75 10 28.75H7.69202L7.6904 28.75C6.51351 28.7475 5.38547 28.2788 4.55329 27.4466C3.72108 26.6144 3.25254 25.4864 3.25 24.3096V22C3.25 21.5858 3.58579 21.25 4 21.25Z" fill="#0F0F0F"/>
<path d="M28.75 22C28.75 21.5858 28.4142 21.25 28 21.25C27.5858 21.25 27.25 21.5858 27.25 22V24.3072C27.2481 25.0872 26.9373 25.8347 26.3856 26.3862C25.8339 26.9378 25.0863 27.2483 24.3063 27.25H22C21.5858 27.25 21.25 27.5858 21.25 28C21.25 28.4142 21.5858 28.75 22 28.75H24.307L24.3084 28.75C25.4855 28.7478 26.6137 28.2792 27.4462 27.447C28.2786 26.6148 28.7475 25.4867 28.75 24.3096L28.75 24.308V22Z" fill="#0F0F0F"/>
<path d="M18.6816 15.2982C19.6392 14.5189 20.251 13.3309 20.251 12C20.251 9.65279 18.3482 7.75 16.001 7.75C13.6538 7.75 11.751 9.65279 11.751 12C11.751 13.3306 12.3624 14.5183 13.3197 15.2976C12.6024 15.6073 11.938 16.0418 11.3597 16.5876C10.105 17.772 9.35074 19.3913 9.25125 21.1137C9.25042 21.1281 9.25 21.1426 9.25 21.157C9.25 21.8168 9.57552 22.3482 10.0162 22.7416C10.4461 23.1253 11.0165 23.4101 11.6291 23.6228C12.8586 24.0496 14.4483 24.25 16 24.25C17.5517 24.25 19.1414 24.0496 20.3709 23.6228C20.9835 23.4101 21.5539 23.1253 21.9838 22.7416C22.4245 22.3482 22.75 21.8168 22.75 21.157H22L22.7488 21.1137C22.6493 19.3912 21.8947 17.7719 20.6401 16.5876C20.0621 16.0421 19.3982 15.6079 18.6816 15.2982ZM16.001 9.25C17.5198 9.25 18.751 10.4812 18.751 12C18.751 13.4652 17.6051 14.6627 16.1607 14.7454C16.1072 14.7442 16.0536 14.7435 16 14.7435C15.9468 14.7435 15.8937 14.7442 15.8407 14.7454C14.3965 14.6624 13.251 13.465 13.251 12C13.251 10.4812 14.4822 9.25 16.001 9.25ZM15.8252 16.2464C15.8835 16.2488 15.9421 16.25 16.001 16.25C16.0596 16.25 16.1178 16.2488 16.1758 16.2465C17.4549 16.2892 18.6768 16.7972 19.6104 17.6784C20.5804 18.594 21.1662 19.8436 21.2497 21.174C21.2451 21.2923 21.1905 21.439 20.985 21.6225C20.7586 21.8246 20.3915 22.0278 19.8791 22.2057C18.8586 22.5599 17.4483 22.75 16 22.75C14.5517 22.75 13.1414 22.5599 12.1209 22.2057C11.6085 22.0278 11.2414 21.8246 11.015 21.6225C10.8095 21.439 10.7549 21.2923 10.7503 21.174C10.8338 19.8435 11.4194 18.5939 12.3893 17.6784C13.3232 16.797 14.5457 16.2889 15.8252 16.2464Z" fill="#0F0F0F"/>
</svg>

<svg xmlns="http://www.w3.org/2000/svg" width="32" height="32" viewBox="0 0 32 32"><path d="M7.692 3.25H7.69a4.45 4.45 0 0 0-4.44 4.44V10a.75.75 0 0 0 1.5 0V7.693A2.95 2.95 0 0 1 7.693 4.75H10a.75.75 0 0 0 0-1.5H7.692ZM22 3.25a.75.75 0 0 0 0 1.5h2.306a2.95 2.95 0 0 1 2.944 2.943V10a.75.75 0 0 0 1.5 0V7.69a4.45 4.45 0 0 0-4.442-4.44H22ZM4 21.25a.75.75 0 0 1 .75.75v2.307a2.95 2.95 0 0 0 2.943 2.943H10a.75.75 0 0 1 0 1.5H7.69a4.45 4.45 0 0 1-4.44-4.44V22a.75.75 0 0 1 .75-.75ZM28.75 22a.75.75 0 0 0-1.5 0v2.307a2.95 2.95 0 0 1-2.944 2.943H22a.75.75 0 0 0 0 1.5h2.308a4.45 4.45 0 0 0 4.442-4.44V22ZM18.682 15.298a4.25 4.25 0 1 0-5.362 0 6.758 6.758 0 0 0-4.07 5.859c0 .66.326 1.191.766 1.585.43.383 1 .668 1.613.88 1.23.428 2.82.628 4.371.628 1.552 0 3.141-.2 4.37-.627.613-.213 1.184-.498 1.614-.881.44-.394.766-.925.766-1.585H22l.749-.043a6.76 6.76 0 0 0-4.067-5.816ZM16 9.25a2.75 2.75 0 0 1 .16 5.495 7.168 7.168 0 0 0-.32 0A2.75 2.75 0 0 1 16 9.25Zm-.176 6.996a4.274 4.274 0 0 0 .35 0 5.26 5.26 0 0 1 5.075 4.928c-.005.118-.06.265-.265.448-.226.203-.593.406-1.106.584-1.02.354-2.43.544-3.879.544-1.448 0-2.859-.19-3.88-.544-.511-.178-.879-.381-1.105-.584-.206-.183-.26-.33-.265-.448a5.26 5.26 0 0 1 5.075-4.928Z"/></svg>
